Adwaita++-Light/panel/16/btsync-gui-9.svg

<svg height="16" width="16" xmlns="http://www.w3.org/2000/svg">
  <path d="m14.76148 9.8117327c1.00053-3.7340269-1.215719-7.5726834-4.9497468-8.5732133-3.7340277-1.00052979-7.572685 1.2157199-8.5732143 4.9497474-1.00052904 3.7340279 1.2157198 7.5726852 4.9497489 8.5732142 3.7340266 1.00053 7.5726832-1.21572 8.5732122-4.9497483zm-1.931851-.5176372c-.626084 2.3365775-2.807591 3.8414045-5.132019 3.6981375l-.2845976 1.062139-2.3801407-2.708306 3.4154157-1.155395-.2113014.788587c1.2301073-.09809 2.323159-.94274 2.660791-2.2028002.183457-.6895232.115149-1.4218588-.192661-2.0655597l1.461546-1.4625756c.789133 1.1918292 1.03044 2.6644142.662967 4.045773zm-1.862501-4.6401605-3.4154157 1.1553946.2113011-.7885883c-1.2301076.0980912-2.3231585.9427411-2.6607917 2.202802-.1834526.6895228-.1151479 1.4218582.1926613 2.0655606l-1.461545 1.4625741c-.7891334-1.1918295-1.0304104-2.6644068-.6629672-4.0457729.6260833-2.3365782 2.807591-3.8414042 5.132017-3.6981382l.2846006-1.0621405z" fill="#444"/>
</svg>

<svg xmlns="http://www.w3.org/2000/svg" width="16" height="16" version="1.1">
 <defs>
  <style id="current-color-scheme" type="text/css">
   .ColorScheme-Text { color:#444444; } .ColorScheme-Highlight { color:#4285f4; }
  </style>
 </defs>
 <path style="fill:currentColor" class="ColorScheme-Text" d="M 14.76148,9.8117327 C 15.76201,6.0777058 13.545761,2.2390493 9.8117332,1.2385194 6.0777055,0.23798961 2.2390482,2.4542393 1.2385189,6.1882668 0.23798986,9.9222947 2.4542387,13.760952 6.1882678,14.761481 9.9222944,15.762011 13.760951,13.545761 14.76148,9.8117327 Z M 12.829629,9.2940955 C 12.203545,11.630673 10.022038,13.1355 7.69761,12.992233 L 7.4130124,14.054372 5.0328717,11.346066 8.4482874,10.190671 8.236986,10.979258 c 1.2301073,-0.09809 2.323159,-0.94274 2.660791,-2.2028002 0.183457,-0.6895232 0.115149,-1.4218588 -0.192661,-2.0655597 l 1.461546,-1.4625756 c 0.789133,1.1918292 1.03044,2.6644142 0.662967,4.045773 z M 10.967128,4.653935 7.5517123,5.8093296 7.7630134,5.0207413 C 6.5329058,5.1188325 5.4398549,5.9634824 5.1022217,7.2235433 4.9187691,7.9130661 4.9870738,8.6454015 5.294883,9.2891039 L 3.833338,10.751678 C 3.0442046,9.5598485 2.8029276,8.0872712 3.1703708,6.7059051 3.7964541,4.3693269 5.9779618,2.8645009 8.3023878,3.0077669 L 8.5869884,1.9456264 10.967128,4.653935 Z"/>
</svg>
